apps/web/public/images/google-pay.svg

<svg xmlns="http://www.w3.org/2000/svg" width="104" height="32" viewBox="0 0 104 32" fill="none">
    <g style="mix-blend-mode:luminosity" opacity="0.5">
        <path fill-rule="evenodd" clip-rule="evenodd" d="M49.9087 24.213H47.5562V5.90723H53.7928C55.3735 5.90723 56.7213 6.4341 57.824 7.48784C58.9513 8.54159 59.5149 9.82813 59.5149 11.3475C59.5149 12.9036 58.9513 14.1901 57.824 15.2316C56.7335 16.2731 55.3857 16.7877 53.7928 16.7877H49.9087V24.213ZM49.9087 8.174V14.5455H53.8419C54.7731 14.5455 55.5573 14.2269 56.1699 13.602C56.7948 12.9771 57.1134 12.2174 57.1134 11.3597C57.1134 10.5143 56.7948 9.76687 56.1699 9.14198C55.5573 8.49258 54.7853 8.174 53.8419 8.174H49.9087Z" fill="#3C4043"/>
        <path fill-rule="evenodd" clip-rule="evenodd" d="M65.666 11.2737C67.4059 11.2737 68.7782 11.7393 69.7829 12.6705C70.7876 13.6017 71.29 14.876 71.29 16.4934V24.2127H69.0477V22.4728H68.9497C67.9817 23.9064 66.6829 24.617 65.0656 24.617C63.681 24.617 62.5292 24.2127 61.598 23.3917C60.6668 22.5708 60.2012 21.5538 60.2012 20.3285C60.2012 19.0297 60.6913 18.0005 61.6715 17.2408C62.6518 16.4689 63.9628 16.0891 65.5924 16.0891C66.9893 16.0891 68.141 16.3464 69.0355 16.861V16.3219C69.0355 15.5009 68.7169 14.8148 68.0675 14.2389C67.4181 13.663 66.6584 13.3812 65.7885 13.3812C64.4774 13.3812 63.4359 13.9326 62.6763 15.0476L60.6055 13.7488C61.745 12.0946 63.4359 11.2737 65.666 11.2737ZM62.6272 20.3653C62.6272 20.9779 62.8846 21.4925 63.4114 21.8969C63.9261 22.3012 64.5387 22.5095 65.2371 22.5095C66.2296 22.5095 67.1118 22.1419 67.8837 21.4068C68.6556 20.6716 69.0477 19.8139 69.0477 18.8214C68.3126 18.2456 67.2956 17.9515 65.9845 17.9515C65.0288 17.9515 64.2324 18.1843 63.5952 18.6376C62.9458 19.1155 62.6272 19.6914 62.6272 20.3653Z" fill="#3C4043"/>
        <path d="M76.2408 29.7145L84.0826 11.6783H81.5218L77.895 20.6719H77.8459L74.1211 11.6783H71.5602L76.7309 23.4043L73.8148 29.7145H76.2408Z" fill="#3C4043"/>
        <path d="M40.3557 13.0981C40.4831 13.8039 40.5518 14.5379 40.5518 15.3049C40.5518 18.4949 39.4212 21.1951 37.448 23.0219L34.0675 20.3999L34.0663 20.4007V20.3996C35.2022 19.635 35.9435 18.4882 36.1738 17.1428L30.4946 17.1416V13.0981H40.3557Z" fill="#4285F4"/>
        <path d="M21.1162 19.7799C22.844 23.2079 26.3947 25.5601 30.4967 25.5601C33.332 25.5601 35.7139 24.6277 37.4477 23.0226L34.0671 20.4004C33.1261 21.0351 31.9143 21.4064 30.4967 21.4064C27.7582 21.4064 25.435 19.5611 24.6031 17.0738C24.603 17.0735 24.6031 17.0741 24.6031 17.0738L21.1162 19.7799Z" fill="#34A853"/>
        <path d="M21.1162 10.3521L24.6033 13.0575C24.6033 13.0575 24.6033 13.0574 24.6033 13.0575C24.3913 13.6922 24.275 14.3672 24.275 15.0656C24.275 15.764 24.3914 16.4392 24.6034 17.0739L21.1162 19.7793C20.4031 18.3616 20 16.7614 20 15.0656C20 13.3699 20.4019 11.7697 21.1162 10.3521Z" fill="#FABB05"/>
        <path d="M30.497 8.725C32.0445 8.725 33.4303 9.258 34.5245 10.2995L37.5203 7.30612C35.7008 5.61155 33.3286 4.57129 30.497 4.57129C26.396 4.57129 22.8439 6.92383 21.1162 10.3522L24.6034 13.0576C25.4353 10.5703 27.7585 8.725 30.497 8.725Z" fill="#E94235"/>
    </g>
</svg>

<svg fill="none" xmlns="http://www.w3.org/2000/svg" viewBox="0 0 104 32"><path fill-rule="evenodd" clip-rule="evenodd" d="M50 24.2h-2.4V6h6.2c1.6 0 3 .5 4 1.6a5 5 0 0 1 1.7 3.8 5 5 0 0 1-1.7 4c-1 1-2.4 1.5-4 1.5h-3.9v7.4Zm0-16v6.3h3.8c1 0 1.8-.3 2.4-.9a3 3 0 0 0 0-4.5 3 3 0 0 0-2.4-1H50ZM65.7 11.3c1.7 0 3 .4 4 1.4a5 5 0 0 1 1.6 3.8v7.7H69v-1.7a4.5 4.5 0 0 1-4 2.1 5 5 0 0 1-3.4-1.2 4 4 0 0 1-1.4-3c0-1.4.5-2.4 1.5-3.2 1-.7 2.3-1.1 3.9-1.1 1.4 0 2.5.2 3.4.8v-.6c0-.8-.3-1.5-1-2-.6-.6-1.3-1-2.2-1-1.3 0-2.4.6-3.1 1.7l-2-1.3a5.7 5.7 0 0 1 5-2.4Zm-3 9c0 .7.2 1.2.7 1.6.5.4 1.1.6 1.8.6 1 0 2-.4 2.7-1 .8-.8 1.1-1.7 1.1-2.7-.7-.6-1.7-.8-3-.8a4 4 0 0 0-2.4.6c-.7.5-1 1-1 1.8Z" fill="#71717A" fill-opacity=".5"/><path d="m76.2 29.7 7.9-18h-2.6l-3.6 9-3.8-9h-2.5l5.1 11.7-2.9 6.3h2.4ZM40.4 13.1l.2 2.2c0 3.2-1.2 5.9-3.2 7.7l-3.3-2.6c1.1-.8 1.8-2 2-3.3h-5.6v-4h9.9Z" fill="#71717A" fill-opacity=".5"/><path d="M21.1 19.8c1.7 3.4 5.3 5.8 9.4 5.8 2.8 0 5.2-1 7-2.6L34 20.4c-1 .6-2.2 1-3.6 1a6.3 6.3 0 0 1-5.9-4.3l-3.5 2.7Z" fill="#71717A" fill-opacity=".5"/><path d="m21.1 10.4 3.5 2.7a6.3 6.3 0 0 0 0 4l-3.5 2.7a10.5 10.5 0 0 1 0-9.4ZM30.5 8.7c1.5 0 3 .6 4 1.6l3-3a10.5 10.5 0 0 0-16.4 3l3.5 2.8a6.3 6.3 0 0 1 5.9-4.4Z" fill="#71717A" fill-opacity=".5"/></svg>
